X:86
T:Pleasures of Youth. THO5.086, The
M:2/4
L:1/8
B:Thompson's Complete Collection of 200 Favourite Dances Vol.5
F:https://www.libraryofdance.org/manuals/1780c-Thompson-Compleat-5.pdf
Z:vmp. Peter Dunk 2024
Q:1/4=120
K:A
!p!c>d|e>dcd|e2 aa|ag/a/ bb|ba!f!cd|\\
e>dcd|e2 [cC]A|DAEG|A2:|
|:!p!aa|geaa|geaa|ggff|e2 !f!cd|\\
e>dcd|e2 [cC]A|DAEG|A2:|
W:
W:The 1st Couple Allemande ./.
W:The second Couple do the same ./:
W:Promenade thre Couples round :/.
W:The First and second Couples Pousett :/:

